icons/rect/rect-plain.svg

<?xml version="1.0" encoding="UTF-8"?>
<svg xmlns="http://www.w3.org/2000/svg" xmlns:xlink="http://www.w3.org/1999/xlink" width="128px" height="128px" viewBox="0 0 128 128" version="1.1">
<g id="surface1">
<path fill="#292929" fill-rule="evenodd" d="M 127.828125 0.171875 L 0.171875 0.171875 L 0.171875 127.828125 L 127.828125 127.828125 L 127.828125 103.847656 L 119.546875 103.847656 L 119.546875 121.101562 L 115.0625 121.101562 L 115.0625 103.847656 L 106.609375 103.847656 L 106.609375 99.535156 L 127.828125 99.535156 Z M 54.855469 99.535156 L 76.421875 99.535156 L 76.421875 103.847656 L 59.167969 103.847656 L 59.167969 108.160156 L 67.621094 108.160156 L 67.621094 112.472656 L 59.167969 112.472656 L 59.167969 116.785156 L 76.421875 116.785156 L 76.421875 121.101562 L 54.855469 121.101562 Z M 80.734375 99.535156 L 102.125 99.535156 L 102.125 103.847656 L 85.046875 103.847656 L 85.046875 116.785156 L 102.125 116.785156 L 102.125 121.101562 L 80.734375 121.101562 Z M 28.808594 99.535156 L 50.371094 99.535156 L 50.371094 112.472656 L 46.058594 112.472656 L 46.058594 116.785156 L 41.746094 116.785156 L 41.746094 112.472656 L 33.121094 112.472656 L 33.121094 121.101562 L 28.808594 121.101562 Z M 46.058594 116.785156 L 46.058594 121.101562 L 50.371094 121.101562 L 50.371094 116.785156 Z M 46.058594 103.847656 L 46.058594 108.160156 L 33.121094 108.160156 L 33.121094 103.847656 Z M 46.058594 103.847656 "/>
</g>
</svg>

<svg xmlns="http://www.w3.org/2000/svg" viewBox="0 0 128 128"><path fill="#292929" fill-rule="evenodd" d="M127.828.172H.172v127.656h127.656v-23.98h-8.281v17.254h-4.484v-17.254h-8.454v-4.313h21.22zM54.855 99.535h21.567v4.313H59.168v4.312h8.453v4.313h-8.453v4.312h17.254v4.317H54.855zm25.88 0h21.39v4.313H85.047v12.937h17.078v4.317h-21.39zm-51.926 0H50.37v12.938H46.06v4.312h-4.313v-4.312h-8.625v8.629H28.81zm17.25 17.25v4.317h4.312v-4.317zm0-12.937v4.312H33.12v-4.312zm0 0"/></svg>
